X:24
T:Les Rivals. RHu.24
T:King of the Cannibal Islands,aka. RHu.24
S:R.Hughes MS,1823,Whitchurch,Shrops.
N:Segno in bar 1 implies that lead-in note should be ignored when tune is repeated.
N:i.e. play last bar, then straight into bar 1. Tune probably ends on bar 8.
A:Whitchurch, Shropshire
Z:Neil Brookes 2006
M:6/8
L:1/8
Q:3/8=120
R:Jig
K:C
G|”Segno”e2dc2B|B2AG2E|FEF D2F|E2FG2G|!
A2Cc2C|G2Cc2C|Bcd GAB|c3c2||!
e2ee2d|e2ee2d|e2ef2e|d>edd3|!
c2cc2B|c2cc2B|c2cd2c|B>cd GAB|!
c3B>AG|A2Bc3|c3 BAG|A2Bc2e|!
d2cd2e|d2cd2e|d2ge2g|dGA Bcd|]

